X:1
T:Title
%%score 1 2
L:1/8
Q:1/4=100
M:3/4
K:G
V:1 treble nm="Choir Aahs, Treble"
V:2 bass nm="Strings 1, Bass"
V:1
 z2 z2 D2 | [DG]3 [GB] [FA][Ac] | [GB][Gd] [Gd]2 [Ge]2 | [Gd]3 [GB] [DG][GB] | [GB][FA] [FA]2 D2 | %5
w: 1.~Praise~|God,~ I~ live~ in~|Beu lah~ land,~ My~|house~ will~ all~ the~|storms~ with stand;~ It~|
 [DG]3 [GB] [FA][Ac] | [GB][Gd] [Gd]2 [Ge]2 | [Gd]3 G [GB][FA] | G4 [Gd]2 | [Ge]3 [Ge] [Gc][Ge] | %10
w: is~ not~ built~ on~|sink ing~ sand,~ My~|home~ is~ on~ the~|Rock.~ My~|home~ is~ on~ the~|
 [Gd]4 [GB]2 | [Gd]3 [GB] [DA]G | [FA]4 D2 | [DG]3 [GB] [FA][Ac] | [GB][Gd] [Gd]2 [Ge]2 | %15
w: Rock,~ The~|Ev er last ing~|Rock;~ I~|do~ not~ fear~ when~|storms~ are~ near,~ My~|
 [Gd]3 G [GB][FA] | G4 z2 |] %17
w: home~ is~ on~ the~|Rock.~|
V:2
 z2 z2 [G,B,]2 | [G,B,]3 [G,D] [D,D][D,D] | [G,D][G,B,] [G,B,]2 [G,C]2 | %3
 [G,B,]3 [G,D] [G,B,][G,D] | [D,D][D,D] [D,D]2 [D,C]2 | [G,B,]3 [G,D] [D,D][D,D] | %6
 [G,D][G,B,] [G,B,]2 [C,C]2 | [D,B,]3 [D,B,] [D,D][D,C] | [G,B,]4 [G,B,]2 | %9
 [C,C]3 [C,C] [E,C][C,C] | [G,B,]4 [G,D]2 | [G,B,]3 [G,D] [F,D][E,^C] | [D,D]4 [D,C]2 | %13
 [G,B,]3 [G,D] [D,D][D,D] | [G,D][G,B,] [G,B,]2 [C,C]2 | [D,B,]3 [D,B,] [D,D][D,C] | [G,B,]4 z2 |] %17

